!!!!SEGMENT: pl-wtm--r-131-m--002_moniuszko-stanislaw--msza-swieta-slowa-odynca-gloria.krn
!!!cenid: 18xx:1725
!!!COM: Moniuszko, Stanisław
!!!COM-rismID: pe30008351
!!!CDT: 1819/05/05-1872/06/04
!!!CNT: Polish
!!!OPR: Msza święta słowa Odyńca
!!!OTL: Gloria
!!!OMV: 002
!!!PDT:
!!!AGN: Sacred; Mass
!!!SMS-siglum: PL-Wtm
!!!SMS-shelfmark: R 131/M
!!!SMS-shelfwork: 001-002 M
!!!SMS-variant:
!!!SMS-altvar:
!!!NIFC-rismSourceID: 1001097550
!!!NIFC-islandoraID:
!!!URL-pdf-islandora:
!!!URL-scan:
!!!ONB-nifc: UWAGA: części Mszy: 1. Kyrie, 2. Gloria, 3. Graduale, 4. Credo, 5. Sanctus, 6. Benedictus, 7. Agnus
!!!OMD: Allegro.
!!!AIN: 1 cbass 1 cello 1 empty 1 viola 2 violn
!!!key:
**kern	**kern	**dynam	**kern	**dynam	**kern	**dynam	**kern	**dynam	**kern	**dynam	**kern	**dynam
*part6	*part6	*part6	*part5	*part5	*part4	*part4	*part3	*part3	*part2	*part2	*part1	*part1
*staff7	*staff6	*	*staff5	*	*staff4	*	*staff3	*	*staff2	*	*staff1	*
*	*	*	*group1	*	*group1	*	*group1	*	*group1	*	*group1	*
*Iempty	*Iorgan	*	*Icbass	*	*Icello	*	*Iviola	*	*Ivioln	*	*Ivioln	*
*	*I"Organ.	*	*I"CbS.	*	*I"Vcll.	*	*I"Vla.	*	*I"V. 2.	*	*I"V. 1.	*
*clefF4	*clefG2	*	*clefF4	*	*clefF4	*	*clefC3	*	*clefG2	*	*clefG2	*
*k[f#c#g#d#a#]	*k[f#c#g#d#a#]	*	*k[f#c#g#d#a#]	*	*k[f#c#g#d#a#]	*	*k[f#c#g#d#a#]	*	*k[f#c#g#d#a#]	*	*k[f#c#g#d#a#]	*
*B:	*B:	*	*B:	*	*B:	*	*B:	*	*B:	*	*B:	*
*M4/4	*M4/4	*	*M4/4	*	*M4/4	*	*M4/4	*	*M4/4	*	*M4/4	*
*met(c)	*met(c)	*	*met(c)	*	*met(c)	*	*met(c)	*	*met(c)	*	*met(c)	*
*all\right	*all\right	*	*all\right	*	*all\right	*	*all\right	*	*all\right	*	*all\right	*
=1	=1	=1	=1	=1	=1	=1	=1	=1	=1	=1	=1	=1
*	*	*	*	*	*clefC4	*	*	*	*	*	*	*
!LO:TX:t=P:problem=kolejność znaków F# C# G# D# A#	!LO:TX:t=P:problem=kolejność znaków f# cc# g# dd# a#	!	!LO:TX:t=P:problem=klucz i znaki F# C# G# D# A# zapisane jako powtórzenie	!	!LO:TX:t=P:problem=kolejność znaków F# C# G# D# A#	!	!LO:TX:t=P:problem=kolejność znaków F# c# G# d# A#	!	!LO:TX:t=P:problem=klucz i znaki f# cc# g# dd# a# zapisane jako powtórzenie	!	!LO:TX:t=P:problem=kolejność znaków f# cc# g# dd# a#	!LO:DY:rj
1ryy	1ryy	.	1r	.	4B\	.	4B/	.	4d#/	.	4f#/	f
.	.	.	.	.	8.B\L	.	8.B/L	.	8.d#/L	.	8.f#/L	.
.	.	.	.	.	16B\Jk	.	16B/Jk	.	16d#/Jk	.	16f#/Jk	.
.	.	.	.	.	4d#\	.	4d#\	.	4f#/	.	4b\	.
.	.	.	.	.	4d#\	.	4d#\	.	4f#/	.	4b\	.
=2	=2	=2	=2	=2	=2	=2	=2	=2	=2	=2	=2	=2
*	*	*	*	*	*2\right	*	*2\right	*	*	*	*2\right	*
1ryy	1ryy	.	1r	.	2f#\	.	2f#\	.	2a#^/	.	2cc#^\	.
.	.	.	.	.	4B\	.	2b\	.	2b/	.	2dd#\	.
.	.	.	.	.	4r	.	.	.	.	.	.	.
=3	=3	=3	=3	=3	=3	=3	=3	=3	=3	=3	=3	=3
1ryy	1ryy	.	1r	.	4.g#^\	.	4.g#^\	.	4.b^/	.	4.ee^\	.
.	.	.	.	.	8f#\	.	8f#\	.	8b/	.	8dd#\	.
!	!	!	!	!	!	!	!	!	!LO:TX:t=P:problem=skreślona nuta	!	!	!
.	.	.	.	.	4e\	.	4e\	.	4f#/	.	4cc#\	.
.	.	.	.	.	4d#\	.	4d#\	.	4f#/	.	4b\	.
=4	=4	=4	=4	=4	=4	=4	=4	=4	=4	=4	=4	=4
*	*	*	*	*	*	*	*	*	*2\right	*	*	*
1ryy	1ryy	.	1r	.	2f#^\	.	2f#^\	.	2b^\	.	2dd#^\	.
.	.	.	.	.	2d#\	.	2d#\	.	2f#/	.	2b\	.
=5	=5	=5	=5	=5	=5	=5	=5	=5	=5	=5	=5	=5
1ryy	1ryy	.	1r	.	4B\	.	4B/	.	4d#/	.	4f#/	.
.	.	.	.	.	8.B\L	.	8.B/L	.	8.d#/L	.	8.f#/L	.
.	.	.	.	.	16B\Jk	.	16B/Jk	.	16d#/Jk	.	16f#/Jk	.
.	.	.	.	.	4G#/	.	4B/	.	4d#/	.	4b\	.
!	!	!	!	!	!	!	!	!	!LO:TX:t=P:problem=skreślona nuta	!	!	!
.	.	.	.	.	4G#/	.	4B/	.	4b/	.	4b\	.
=6	=6	=6	=6	=6	=6	=6	=6	=6	=6	=6	=6	=6
1ryy	1ryy	.	1r	.	4r	.	4e^\	.	(>2a#^/	.	(2cc# 2e^\	.
.	.	.	.	.	8.F#/L	.	8.F#/L	.	.	.	.	.
.	.	.	.	.	16F#/Jk	.	16F#/Jk	.	.	.	.	.
.	.	.	.	.	4B\	.	4B/	.	4b 4d#/)	.	4dd#\)	.
.	.	.	.	.	4d#\	.	4d#\	.	4b/	.	4dd#\	.
=7	=7	=7	=7	=7	=7	=7	=7	=7	=7	=7	=7	=7
1ryy	1ryy	.	1r	.	2F#^/	.	2F#^/	.	4.b 4.d#^/	.	4.ff#^\	.
.	.	.	.	.	.	.	.	.	8b 8d#/	.	8dd#\	.
.	.	.	.	.	4F#/	.	4f#\	.	4b 4d#/	.	4b\	.
.	.	.	.	.	4F#/	.	4e\	.	4a#/	.	4cc#\	.
!!LO:PB:g=original
=8	=8	=8	=8	=8	=8	=8	=8	=8	=8	=8	=8	=8
!	!	!	!	!	!	!	!LO:N:vis=4.	!	!	!	!	!
1ryy	1ryy	.	1r	.	4B\	.	4d#\	.	4.b\	.	4.b\	.
.	.	.	.	.	8f#\L	.	8f#\L	.	.	.	.	.
.	.	.	.	.	8d#\J	.	8d#\J	.	8r	.	8r	.
.	.	.	.	.	8B/L	.	8B/L	.	2r	.	2r	.
.	.	.	.	.	8G#/	.	8G#/	.	.	.	.	.
!	!	!	!LO:TX:b:t=pizzi	!	!	!	!	!	!	!	!	!
.	.	.	.	.	8F#/	.	8F#/	.	.	.	.	.
.	.	.	.	.	8D#/J	mf	8D#/J	mf	.	mf	.	mf
=9	=9	=9	=9	=9	=9	=9	=9	=9	=9	=9	=9	=9
!	!	!	!	!LO:DY:t=mf.	!	!	!	!	!	!	!	!
1ryy	1ryy	.	4B\	mf	(4B\	.	(4B\	.	4b 4d#/	.	4dd# 4f#\	.
!	!	!	!	!	!	!	!	!	!LO:TX:t=P:problem=skreślony dźwięk	!	!	!
.	.	.	4r	.	4d#\	.	4d#\	.	8.b/L	.	8.dd#\L	.
.	.	.	.	.	.	.	.	.	16b/Jk	.	16dd#\Jk	.
.	.	.	2r	.	4f#\)	.	4g#\)	.	4b/	.	4dd#\	.
.	.	.	.	.	4r	.	4f#\	.	4b/	.	4dd#\	.
=10	=10	=10	=10	=10	=10	=10	=10	=10	=10	=10	=10	=10
1ryy	1ryy	.	4r	.	4r	.	4r	.	(2b (2g#^/	.	2cc# 2e#X^/	.
*	*	*	*	*	*clefF4	*	*	*	*	*	*	*
.	.	.	4C#/	.	8.C#/L	.	8.C#/L	.	.	.	.	.
.	.	.	.	.	16C#/Jk	.	16C#/Jk	.	.	.	.	.
.	.	.	4F#\	.	4F#\	.	4F#|/	.	4a#/))	.	2f#/	.
.	.	.	4r	.	4FF#/	.	4F#|/	.	[4a#^/	.	.	.
=11	=11	=11	=11	=11	=11	=11	=11	=11	=11	=11	=11	=11
1ryy	1ryy	.	1r	.	4GG#/	.	4G#/	.	4a#/]	.	4.b 4.d#/	.
.	.	.	.	.	8BB/L	.	8B/L	.	8g#/L	.	.	.
.	.	.	.	.	8D#/J	.	8D#/J	.	8f##X/J	.	8b 8d#/	.
.	.	.	.	.	4G#\	.	4G#/	.	8g#/	.	8b 8e/	.
.	.	.	.	.	.	.	.	.	8r	.	8r	.
.	.	.	.	.	4F#\	.	4d#\	.	4g#/	.	4b/	.
=12	=12	=12	=12	=12	=12	=12	=12	=12	=12	=12	=12	=12
1ryy	1ryy	.	4r	.	4E#X^\	.	2c##X^\	.	2g#^/	.	2a#^/	.
.	.	.	4AA#/	.	8.AA#/L	.	.	.	.	.	.	.
.	.	.	.	.	16AA#/Jk	.	.	.	.	.	.	.
.	.	.	4D#\	.	8D#\	.	8d#\	.	8f#X/	.	8a#/	.
.	.	.	.	.	8r	.	8r	.	8r	.	8r	.
.	.	.	4r	.	8F#\	.	8F#/	.	8f#/	.	8f#/	.
.	.	.	.	.	8r	.	8r	.	8r	.	8r	.
.	.	.	.	.	.	ff	.	ff	.	ff	.	ff
=13	=13	=13	=13	=13	=13	=13	=13	=13	=13	=13	=13	=13
1ryy	1ryy	.	1r	.	4F#\	.	4A#X/	.	4e 4c#/	.	4f#/	.
.	.	.	.	.	8.F#\L	.	8.A#/L	.	8.eL 8.c#/	.	8.f#/L	.
.	.	.	.	.	16F#\Jk	.	16A#/Jk	.	16eJk 16c#/	.	16f#/Jk	.
.	.	.	.	.	4F#\	.	4G#/	.	4d#/	.	4b\	.
!	!	!	!LO:TX:b:t=arco	!	!	!	!	!	!	!	!	!
.	.	.	.	.	4F#\	.	4F#/	.	4b 4d#/	.	4b\	.
=14	=14	=14	=14	=14	=14	=14	=14	=14	=14	=14	=14	=14
1ryy	1ryy	.	4r	ff	4r	ff	4r	ff	(2a#X^/	.	[2cc# 2f#^/	.
.	.	.	8.F#\L	.	8.F#\L	.	8.f#\L	.	.	.	.	.
.	.	.	16F#\Jk	.	16F#\Jk	.	16f#\Jk	.	.	.	.	.
.	.	.	4D#\	.	4D#|\	.	4d#|\	.	8b/)	.	8cc#] 8f#/	.
.	.	.	.	.	.	.	.	.	8r	.	8r	.
.	.	.	4BB/	.	4BB|/	.	4B|/	.	4r	.	4r	.
!!LO:LB:g=original
=15	=15	=15	=15	=15	=15	=15	=15	=15	=15	=15	=15	=15
!	!	!	!	!	!	!	!	!LO:DY:rj	!	!LO:DY:rj	!	!LO:DY:rj
1ryy	1ryy	.	4.F#\	sf	4.F#\	sf	4.b 4.d# 4.F#\	sf	4.dd# 4.f#/	sf	4.ff# 4.b 4.d#/	sf
.	.	.	8F#\	.	8F#\	.	8b\	.	8f#/	.	8dd#\	.
.	.	.	4F#\	.	4F#\	.	4f#\	.	4d#/	.	4b\	.
.	.	.	.	.	.	.	.	.	.	.	8qdd#/	.
.	.	.	4F#\	.	4F#\	.	4a#\	.	4e/	.	4cc#\	.
=16	=16	=16	=16	=16	=16	=16	=16	=16	=16	=16	=16	=16
*^	*	*	*	*	*	*	*	*	*	*	*	*
!LO:TX:b:i:t=ped.	!	!	!	!LO:TX:t=P:problem=skreślona kropka przy nucie	!	!	!	!	!	!	!	!	!
*v	*v	*	*	*	*	*	*	*	*	*	*	*	*
*	*	*	*	*	*	*	*	*	*Xbrackettup	*	*	*
*^	*	*	*	*	*	*	*	*	*	*	*	*
!	!	!	!	!	!	!	!	!	!	!LO:TUP:a	!	!	!
*v	*v	*	*	*	*	*	*	*	*	*	*	*	*
*	*	*	*	*	*	*	*	*	*	*	*Xbrackettup	*
*^	*	*	*	*	*	*	*	*	*	*	*	*
!	!	!	!	!	!	!	!	!	!	!	!	!LO:TUP:a	!
2F#/	[1BB	[2b [2d#/	p	2BB/	.	8d# 8F#\	.	8b\	.	12d#|/	.	12dd#|\	.
.	.	.	.	.	.	.	.	.	.	(12B/L	.	(12d#/L	.
.	.	.	.	.	.	8r	.	8r	.	.	.	.	.
.	.	.	.	.	.	.	.	.	.	12d#/J)	.	12f#/J)	.
*	*	*	*	*	*	*	*	*	*	*Xtuplet	*	*	*
.	.	.	.	.	.	8d# 8F#\	.	8d# 8F#/	.	(12d#/L	.	(12f#/L	.
.	.	.	.	.	.	.	.	.	.	12B/)	.	12d#/)	.
.	.	.	.	.	.	8r	.	8r	.	.	.	.	.
.	.	.	.	.	.	.	.	.	.	12d#/J	.	12b/J	.
*	*	*	*	*	*	*	*	*	*	*	*	*Xtuplet	*
2r	.	8b] 8d#/]	.	8BB/	.	8d# 8F#\	.	8d# 8F#/	.	12r	.	12r	.
.	.	.	.	.	.	.	.	.	.	(12B/L	.	(12d#/L	.
.	.	8r	.	8r	.	8r	.	8r	.	.	.	.	.
.	.	.	.	.	.	.	.	.	.	12d#/J)	.	12f#/J)	.
.	.	8.dd#L 8.f#/	.	8.BB/L	.	8.B^\L	.	8.B^/L	.	(12f#/L	.	(12f#/L	.
.	.	.	.	.	.	.	.	.	.	12d#/)	.	12d#/	.
.	.	.	.	.	.	.	.	.	.	12d#/J	.	12b/J)	.
.	.	16bJk 16d#/	.	16BB/Jk	.	16F#\Jk	.	16F#/Jk	.	.	.	.	.
*v	*v	*	*	*	*	*	*	*	*	*	*	*	*
=17	=17	=17	=17	=17	=17	=17	=17	=17	=17	=17	=17	=17
1BB_	2b [2d#/	.	2BB/	.	8F#\	.	8F#/	.	12r	.	12r	.
.	.	.	.	.	.	.	.	.	(12B/L	.	(12d#/L	.
.	.	.	.	.	8r	.	8r	.	.	.	.	.
.	.	.	.	.	.	.	.	.	12d#/J)	.	12f#/J)	.
.	.	.	.	.	8d# 8F#\	.	8d# 8F#/	.	(12d#/L	.	(12f#/L	.
.	.	.	.	.	.	.	.	.	12B/)	.	12d#/	.
.	.	.	.	.	8r	.	8r	.	.	.	.	.
.	.	.	.	.	.	.	.	.	12d#/J	.	12b/J)	.
.	4f# 4d#/]	.	8BB/	.	8d# 8F#\	.	8d# 8F#/	.	12r	.	12r	.
.	.	.	.	.	.	.	.	.	(12B/L	.	(12d#/L	.
.	.	.	8r	.	8r	.	8r	.	.	.	.	.
.	.	.	.	.	.	.	.	.	12d#/J)	.	12f#/J)	.
.	8.dd#L 8.f#/	.	8.BB/L	.	8.B^\L	.	8.B^/L	.	(12f#/L	.	(12f#/L	.
.	.	.	.	.	.	.	.	.	12d#/)	.	12d#/)	.
.	.	.	.	.	.	.	.	.	12d#'/J	.	12b/J	.
.	16bJk 16d#/	.	16BB/Jk	.	16F#\Jk	.	16F#/Jk	.	.	.	.	.
=18	=18	=18	=18	=18	=18	=18	=18	=18	=18	=18	=18	=18
*2\right	*	*	*	*	*	*	*	*	*	*	*	*
*^	*	*	*	*	*	*	*	*	*	*	*	*
!	!	!	!	!	!	!	!	!LO:SIC:v:s=8F#	!	!	!	!	!
2BB\]	2ryy	(2b (2d#/	.	2BB/	.	8F#\	.	8G#/	.	12r	.	12r	.
.	.	.	.	.	.	.	.	.	.	(12B/L	.	(12d#/L	.
.	.	.	.	.	.	8r	.	8r	.	.	.	.	.
.	.	.	.	.	.	.	.	.	.	12d#/J)	.	12f#/J)	.
.	.	.	.	.	.	8d# 8F#\	.	8d# 8F#/	.	(12d#/L	.	(12f#/L	.
.	.	.	.	.	.	.	.	.	.	12B/)	.	12d#/)	.
.	.	.	.	.	.	8r	.	8r	.	.	.	.	.
.	.	.	.	.	.	.	.	.	.	12d#/J	.	12b/J	.
!	!	!LO:TX:t=P:problem=skreślony dźwięk	!	!LO:TX:t=P:problem=skreślony dźwięk	!	!LO:TX:t=P:problem=skreślone nuty	!	!	!	!	!	!LO:TX:t=P:problem=skreślony fragment	!
4D#\	4ryy	4f#/))	.	8D#/	.	8B\	.	8B/	.	12r	.	12r	.
.	.	.	.	.	.	.	.	.	.	(12f#/L	.	(12f#/L	.
.	.	.	.	8r	.	8r	.	8r	.	.	.	.	.
.	.	.	.	.	.	.	.	.	.	12B/J)	.	12b/J)	.
!	!	!	!	!LO:TX:t=P:problem=skreślony dźwięk	!	!LO:TX:t=P:problem=skreślona nuta	!	!	!	!LO:TX:t=P:problem=skreślony dźwięk	!	!	!
4D#/	4DD#\	4b/s	.	(4D#/	.	(<4D#/	.	[4B/	.	(12B/L	.	(12b/L	.
.	.	.	.	.	.	.	.	.	.	12f#/)	.	12f#/)	.
.	.	.	.	.	.	.	.	.	.	12B/J	.	12b/J	.
*v	*v	*	*	*	*	*	*	*	*	*	*	*	*
=19	=19	=19	=19	=19	=19	=19	=19	=19	=19	=19	=19	=19
*	*2\right	*	*	*	*	*	*	*	*	*	*	*
*^	*^	*	*	*	*	*	*	*	*	*	*	*
2B 2E/	2EE\	1b	2g#\	.	8E\)	.	8E\)	.	8B/]	.	8B/	.	12r	.
.	.	.	.	.	.	.	.	.	.	.	.	.	(12g#/L	.
.	.	.	.	.	8r	.	8r	.	8r	.	8r	.	.	.
.	.	.	.	.	.	.	.	.	.	.	.	.	12b/J)	.
.	.	.	.	.	(4E\	.	(4E\	.	(4g# 4B\	.	(>4g# 4B/	.	(12b/L	.
.	.	.	.	.	.	.	.	.	.	.	.	.	12g#/)	.
.	.	.	.	.	.	.	.	.	.	.	.	.	12b/J	.
2B 2D# 2DD#\	2ryy	.	2f#\	.	8D#\)	.	8D#\)	.	8f# 8B\)	.	8f#/)	.	12r	.
.	.	.	.	.	.	.	.	.	.	.	.	.	(12f#/L	.
.	.	.	.	.	8r	.	8r	.	8r	.	8r	.	.	.
.	.	.	.	.	.	.	.	.	.	.	.	.	12b/J)	.
!	!	!	!	!	!	!	!	!	!LO:TX:t=P:problem=skreślona nuta	!	!	!	!	!
.	.	.	.	.	(4D#\	.	(4D#/	.	[4B\	.	[4f#^/	.	(12b/L	.
.	.	.	.	.	.	.	.	.	.	.	.	.	12f#/)	.
.	.	.	.	.	.	.	.	.	.	.	.	.	12b/J	.
*v	*v	*	*	*	*	*	*	*	*	*	*	*	*	*
!!LO:PB:g=original
=20	=20	=20	=20	=20	=20	=20	=20	=20	=20	=20	=20	=20	=20
!	!LO:N:vis=2	!	!	!LO:TX:t=P:problem=brak zakończenia łuku	!	!LO:TX:t=P:problem=brak zakończenia łuku	!	!	!	!	!	!	!
1C# 1CC#	2.g#/	4f#\	.	8C#/)	.	8C#/)	.	8B\]	.	4f#/]	.	12r	.
.	.	.	.	.	.	.	.	.	.	.	.	(12g#/L	.
.	.	.	.	8r	.	8r	.	8r	.	.	.	.	.
.	.	.	.	.	.	.	.	.	.	.	.	12d#/J)	.
*	*	*	*	*rep	*	*	*	*	*	*	*	*	*
.	.	8.e\L	.	8C#/	.	8C#/	.	[4B^/	.	8.e^/L	.	(12e/L	.
.	.	.	.	.	.	.	.	.	.	.	.	12g#/)	.
.	.	.	.	8r	.	8r	.	.	.	.	.	.	.
.	.	.	.	.	.	.	.	.	.	.	.	12g#/J	.
.	.	16d#\Jk	.	.	.	.	.	.	.	16d#/Jk	.	.	.
.	.	2e\	.	8C#/	.	8C#/	.	4B/]	.	4e/	.	12r	.
.	.	.	.	.	.	.	.	.	.	.	.	(12g#/L	.
.	.	.	.	8r	.	8r	.	.	.	.	.	.	.
.	.	.	.	.	.	.	.	.	.	.	.	12e/J)	.
.	8.a#/L	.	.	8C#/	.	8C#/	.	8.c#/L	.	8.a#/L	.	(12c#/L	.
.	.	.	.	.	.	.	.	.	.	.	.	12e/)	.
.	.	.	.	8r	.	8r	.	.	.	.	.	.	.
.	.	.	.	.	.	.	.	.	.	.	.	12d#/J	.
.	16b/Jk	.	.	.	.	.	.	16d#/Jk	.	16b/Jk	.	.	.
*	*v	*v	*	*	*	*	*	*	*	*	*	*	*
=21	=21	=21	=21	=21	=21	=21	=21	=21	=21	=21	=21	=21
*Xtuplet	*	*	*	*	*	*	*	*	*	*	*	*
*^	*^	*	*	*	*	*	*	*	*	*	*	*
*	*	*	*	*	*	*	*Xbrackettup	*	*	*	*	*	*	*
!	!	!	!	!	!	!	!LO:TUP:a	!	!LO:TX:t=P:problem=mixed beam	!	!	!	!LO:TX:t=P:problem=brak 1 miary	!
12r	1FF#	(4cc#/	1e	.	8F#\	.	(12F#|\	.	12e\L	.	8cc#\	.	4ryy	.
(12F#\L	.	.	.	.	.	.	12F#\L	.	(12E/	.	.	.	.	.
.	.	.	.	.	8r	.	.	.	.	.	8r	.	.	.
12G#\J	.	.	.	.	.	.	12G#\J)	.	12F#/J	.	.	.	.	.
*	*	*	*	*	*rep	*	*Xtuplet	*	*Xtuplet	*	*	*	*	*
12A#\L	.	4f#/	.	.	8F#\	.	12A#\L	.	12G#/L	.	8e 8c#/	.	8f#/	.
12G#\	.	.	.	.	.	.	12G#\	.	12F#/	.	.	.	.	.
.	.	.	.	.	8r	.	.	.	.	.	8r	.	8r	.
*	*	*	*	*	*Xrep	*	*	*	*	*	*	*	*	*
12F#\J)	.	.	.	.	.	.	12F#\J	.	12E/J)	.	.	.	.	.
*	*	*	*	*	*rep	*	*	*	*	*	*	*	*	*
12B\L	.	4g#/	.	.	8F#\	.	(12B\L	.	(12B/L	.	8e/	.	8g#/	.
12F#\	.	.	.	.	.	.	12F#\)	.	12F#/)	.	.	.	.	.
.	.	.	.	.	8r	.	.	.	.	.	8r	.	8r	.
*	*	*	*	*	*Xrep	*	*	*	*	*	*	*	*	*
12B\J	.	.	.	.	.	.	12B\J	.	12B/J	.	.	.	.	.
*	*	*	*	*	*rep	*	*	*	*	*	*	*	*	*
!LO:TX:t=P:problem=mixed beam	!	!	!	!	!	!	!	!	!	!	!	!	!	!
12c#\L	.	4a#/)	.	.	8F#\	.	(12c#\L	.	(12c#/L	.	8f#/	.	8a#/	.
12F#/	.	.	.	.	.	.	12F#\)	.	12F#/)	.	.	.	.	.
.	.	.	.	.	8r	.	.	.	.	.	8r	.	8r	.
*	*	*	*	*	*Xrep	*	*	*	*	*	*	*	*	*
12f#>\J	.	.	.	.	.	.	12F#\J	.	12F#/J	.	.	.	.	.
*	*	*v	*v	*	*	*	*	*	*	*	*	*	*	*
=22	=22	=22	=22	=22	=22	=22	=22	=22	=22	=22	=22	=22	=22
*	*	*Xtuplet	*	*	*	*	*	*	*	*	*	*	*
!	!	!	!LO:DY:t=pp.	!	!LO:DY:a:t=pp.	!	!	!	!	!	!	!	!
2F#/	[1BB	(>12bL 12d#/	pp	[2BB/	pp	8F#\	.	8F#/	.	8d#/	.	(12b\L	.
!	!	!	!	!	!	!	!	!	!	!	!	!	!LO:DY:t=pp.
.	.	12dd#/	.	.	.	.	.	.	.	.	.	12dd#\	pp
.	.	.	.	.	.	8r	.	8r	.	8r	.	.	.
!	!	!	!	!	!	!	!	!	!	!	!LO:DY:t=pp.	!	!
.	.	12cc#/J	.	.	.	.	pp	.	pp	.	pp	12cc#\J)	.
.	.	12b/L	.	.	.	8d# 8F#\	.	8d# 8F#/	.	(12b/L	.	(12b/L	.
.	.	12f#/	.	.	.	.	.	.	.	12f#/	.	12f#/	.
.	.	.	.	.	.	8r	.	8r	.	.	.	.	.
.	.	12d#/J)	.	.	.	.	.	.	.	12d#/J)	.	12d#/J)	.
2r	.	8f#/	.	8BB/]	.	8d# 8F#\	.	8d# 8F#/	.	12f#/	.	12r	.
.	.	.	.	.	.	.	.	.	.	(12B/L	.	(12d#/L	.
.	.	8r	.	8r	.	8r	.	8r	.	.	.	.	.
.	.	.	.	.	.	.	.	.	.	12d#/J)	.	12f#/J)	.
!	!	!	!	!	!	!	!	!	!	!	!	!LO:TX:t=P:problem=skreślony fragment	!
.	.	8.dd#L 8.f#/	.	8.BB/L	.	8.B^\L	.	8.B^/L	.	(12f#/L	.	(12b/L	.
.	.	.	.	.	.	.	.	.	.	12d#/)	.	12ff#/	.
!	!	!	!	!	!	!	!	!	!	!LO:TX:t=P:problem=skreślony dźwięk	!	!	!
.	.	.	.	.	.	.	.	.	.	12f#/J	.	12dd#/J)	.
.	.	16bJk 16d#/	.	16BB/Jk	.	16F#\Jk	.	16F#/Jk	.	.	.	.	.
*v	*v	*	*	*	*	*	*	*	*	*	*	*	*
=23	=23	=23	=23	=23	=23	=23	=23	=23	=23	=23	=23	=23
*	*	*	*rep	*	*rep	*	*rep	*	*	*	*	*
1BB_	2b [2d#/	.	[2BB/	.	8F#\	.	8F#/	.	12r	.	12r	.
.	.	.	.	.	.	.	.	.	(12f#/L	.	(12dd#\L	.
.	.	.	.	.	8r	.	8r	.	.	.	.	.
.	.	.	.	.	.	.	.	.	12e/J	.	12cc#\J	.
!	!	!	!	!	!	!	!	!	!	!	!LO:TX:t=P:problem=skreślony znak powtórzenia	!
.	.	.	.	.	8d# 8F#\	.	8d# 8F#/	.	12d#/L	.	12b/L	.
.	.	.	.	.	.	.	.	.	12f#/)	.	12f#/	.
.	.	.	.	.	8r	.	8r	.	.	.	.	.
.	.	.	.	.	.	.	.	.	12d#/J	.	12d#/J)	.
.	4f# 4d#/]	.	8BB/]	.	8d# 8F#\	.	8d# 8F#/	.	12r	.	12r	.
.	.	.	.	.	.	.	.	.	(12B/L	.	(12d#/L	.
.	.	.	8r	.	8r	.	8r	.	.	.	.	.
.	.	.	.	.	.	.	.	.	12d#/J)	.	12f#/J)	.
.	8.dd#L 8.f#/	.	8.BB/L	.	8.B^\L	.	8.B^/L	.	(12f#/L	.	(12f#/L	.
.	.	.	.	.	.	.	.	.	12d#/)	.	12d#/)	.
.	.	.	.	.	.	.	.	.	12d#/J	.	12b/J	.
.	16bJk 16d#/	.	16BB/Jk	.	16F#\Jk	.	16F#/Jk	.	.	.	.	.
*	*	*	*Xrep	*	*Xrep	*	*Xrep	*	*	*	*	*
=24	=24	=24	=24	=24	=24	=24	=24	=24	=24	=24	=24	=24
*^	*	*	*	*	*	*	*	*	*	*	*	*
2BB/]	2BB\	(2b 2d#/	.	2BB/	.	8F#\	.	8F#/	.	12r	.	12r	.
.	.	.	.	.	.	.	.	.	.	(12d#/L	.	(12ff#\L	.
.	.	.	.	.	.	8r	.	8r	.	.	.	.	.
.	.	.	.	.	.	.	.	.	.	12f#/J	.	12dd#\J	.
.	.	.	.	.	.	8d# 8F#\	.	8d# 8F#/	.	12b/L	.	12b/L	.
.	.	.	.	.	.	.	.	.	.	12f#/	.	12f#/	.
.	.	.	.	.	.	8r	.	8r	.	.	.	.	.
.	.	.	.	.	.	.	.	.	.	12d#/J)	.	12d#/J)	.
!	!	!LO:TX:t=P:problem=skreślony dźwięk	!	!	!	!	!	!	!	!	!	!	!
2D#/	2D#\	4f#/)	.	8D#\	.	8B\	.	8F#/	.	12r	.	12r	.
.	.	.	.	.	.	.	.	.	.	(12f#/L	.	(12f#/L	.
.	.	.	.	8r	.	8r	.	8r	.	.	.	.	.
.	.	.	.	.	.	.	.	.	.	12B/J)	.	12b/J)	.
!	!	!LO:TX:t=P:problem=skreślony fragment	!	!	!	!LO:TX:t=P:problem=skreślony fragment	!	!LO:TX:t=P:problem=skreślony łuk	!	!	!	!	!
.	.	4b/	.	(4D#^\	.	4B^\	.	4B^/	.	12B/L	.	(12b/L	.
.	.	.	.	.	.	.	.	.	.	12f#/	.	12f#/	.
.	.	.	.	.	.	.	.	.	.	12B/J	.	12b/J)	.
!!LO:LB:g=original
=25	=25	=25	=25	=25	=25	=25	=25	=25	=25	=25	=25	=25	=25
*	*	*^	*	*	*	*	*	*	*	*	*	*	*
!	!	!	!	!	!LO:TX:t=P:problem=brak zakończenia łuku	!	!	!	!	!	!	!	!	!
1B	2E 2EE\	1b	4g#\	.	4E\)	.	(4G#\	.	(4g#\	.	12B/L	.	12b/L	.
.	.	.	.	.	.	.	.	.	.	.	12B/	.	12b/	.
.	.	.	.	.	.	.	.	.	.	.	12B/J	.	12b/J	.
*	*	*	*	*	*	*	*	*	*	*	*rep	*	*rep	*
.	.	.	4gn\	.	4E\	.	4Gn\	.	4gn\	.	12B/L	.	12b/L	.
.	.	.	.	.	.	.	.	.	.	.	12B/	.	12b/	.
.	.	.	.	.	.	.	.	.	.	.	12B/J	.	12b/J	.
*	*	*	*	*	*	*	*	*	*	*	*Xrep	*	*Xrep	*
*	*	*	*	*	*	*	*	*	*	*	*rep	*	*rep	*
.	4D# 4DD#\	.	[2f#\	.	4D#\	.	4F#\)	.	4f#\)	.	12B/L	.	12b/L	.
.	.	.	.	.	.	.	.	.	.	.	12B/	.	12b/	.
.	.	.	.	.	.	.	.	.	.	.	12B/J	.	12b/J	.
*	*	*	*	*	*	*	*	*	*	*	*Xrep	*	*Xrep	*
*	*	*	*	*	*	*	*	*	*	*	*rep	*	*rep	*
!	!	!	!	!	!	!	!LO:TX:t=P:problem=skreślony dźwięk	!	!	!	!	!	!	!
.	4Dn 4DDn\	.	.	.	4Dn\	.	[4B^\	.	[<4f#^\	.	12B/L	.	12b/L	.
.	.	.	.	.	.	.	.	.	.	.	12B/	.	12b/	.
.	.	.	.	.	.	.	.	.	.	.	12B/J	.	12b/J	.
*	*	*	*	*	*	*	*	*	*	*	*Xrep	*	*Xrep	*
*v	*v	*	*	*	*	*	*	*	*	*	*	*	*	*
=26	=26	=26	=26	=26	=26	=26	=26	=26	=26	=26	=26	=26	=26
!	!LO:N:vis=2	!	!	!	!	!LO:TX:t=P:problem=skreślony fragment	!	!	!	!	!	!	!
1B 1C# 1CC#	2.g#/	4f#\]	.	1C#	sf	12B\L]	.	4f#\]	.	12B/L	.	2.g#/	sf
.	.	.	.	.	.	12B\	.	.	.	12B/	.	.	.
.	.	.	.	.	.	12B\J	.	.	.	12B/J	.	.	.
*	*	*	*	*	*	*rep	*	*	*	*rep	*	*	*
.	.	8.e#X\L	.	.	.	12B\L	.	8.e#X\L	.	12B/L	.	.	.
.	.	.	.	.	.	12B\	.	.	.	12B/	.	.	.
.	.	.	.	.	.	12B\J	.	.	.	12B/J	.	.	.
*	*	*	*	*	*	*Xrep	*	*	*	*Xrep	*	*	*
.	.	16d#\Jk	.	.	.	.	.	16d#\Jk	.	.	.	.	.
*	*	*	*	*	*	*rep	*	*	*	*rep	*	*	*
.	.	2e#\	.	.	.	12B\L	.	4.c#\	.	12B/L	.	.	.
.	.	.	.	.	.	12B\	.	.	.	12B/	.	.	.
.	.	.	.	.	.	12B\J	.	.	.	12B/J	.	.	.
*	*	*	*	*	*	*Xrep	*	*	*	*Xrep	*	*	*
*	*	*	*	*	*	*rep	*	*	*	*rep	*	*	*
.	8a#/L	.	.	.	.	12B\L	.	.	.	12B/L	.	8a#/L	.
.	.	.	.	.	.	12B\	.	.	.	12B/	.	.	.
.	8b/J	.	.	.	.	.	.	8d#\	.	.	.	8b/J	.
.	.	.	.	.	.	12B\J	.	.	.	12B/J	.	.	.
*	*	*	*	*	*	*Xrep	*	*	*	*Xrep	*	*	*
*	*v	*v	*	*	*	*	*	*	*	*	*	*	*
=27	=27	=27	=27	=27	=27	=27	=27	=27	=27	=27	=27	=27
*^	*	*	*	*	*	*	*	*	*	*	*	*
(4F#/	1FF#	(>4cc# 4e/	.	4F#\	.	12F#\L	.	12F#/L	.	(4e/	.	(4cc#\	.
.	.	.	.	.	.	12F#\	.	12F#/	.	.	.	.	.
.	.	.	.	.	.	12F#\J	.	12F#/J	.	.	.	.	.
*	*	*	*	*	*	*tremolo	*	*tremolo	*	*	*	*	*
4G#/	.	4ee 4g#/	.	4F#\	.	12G#\L	.	12G#/L	.	4g#/	.	4ee\	.
.	.	.	.	.	.	12G#\	.	12G#/	.	.	.	.	.
.	.	.	.	.	.	12G#\J	.	12G#/J	.	.	.	.	.
4An/	.	4dd# 4f#/	.	2F#\	.	12An\L	.	12An/L	.	4f#/	.	4dd#\	.
.	.	.	.	.	.	12A\	.	12A/	.	.	.	.	.
.	.	.	.	.	.	12A\J	.	12A/J	.	.	.	.	.
4A#X/	.	4cc# 4e/	.	.	.	12A#X\L	.	12A#X/L	.	4e/	.	4cc#\	.
.	.	.	.	.	.	12A#\	.	12A#/	.	.	.	.	.
.	.	.	.	.	.	12A#\J	.	12A#/J	.	.	.	.	.
*	*	*	*	*	*	*Xtremolo	*	*Xtremolo	*	*	*	*	*
=28	=28	=28	=28	=28	=28	=28	=28	=28	=28	=28	=28	=28	=28
8B/)	8BB\	8b 8d#/)	.	8B\	.	8B\	.	8B/	.	8d#/)	.	8b\)	.
8r	8ryy	8r	f	8r	.	8r	.	8r	.	8r	.	8r	.
!	!	!	!	!	!LO:DY:rj	!	!LO:DY:rj	!LO:TX:a:t=marcato.	!LO:DY:rj	!LO:TX:a:t=marcato	!LO:DY:rj	!LO:TX:a:t=marcato	!LO:DY:rj
8F#/	8F#\	8.e/L	.	8F#\	f	8F#\	f	8.f#\L	f	8.f#/L	f	8.f#/L	f
8r	8ryy	.	.	8r	.	8r	.	.	.	.	.	.	.
.	.	16f#/Jk	.	.	.	.	.	16f#\Jk	.	16f#/Jk	.	16f#/Jk	.
8d# 8B 8F#/	8D#\	8b 8f#/	.	8D#\	.	8D#\	.	8f#\	.	8b\	.	8b/	.
8r	8ryy	8r	.	8r	.	8r	.	8r	.	8r	.	8r	.
8B 8F#/	8BB\	8cc# 8f#/	.	8BB/	.	8BB/	.	8f#\	.	8b/	.	8dd# 8f#\	.
!LO:TX:b:t=ped.	!	!	!	!	!	!	!	!	!	!	!	!	!
8r	8ryy	8r	.	8r	.	8r	.	8r	.	8r	.	8r	.
=29	=29	=29	=29	=29	=29	=29	=29	=29	=29	=29	=29	=29	=29
*	*	*^	*	*	*	*	*	*	*	*	*	*	*
!	!	!	!	!	!	!	!	!	!LO:TX:t=P:problem=skreślone oznaczenie "marcato"	!	!LO:TX:t=P:problem=skreślone oznaczenie "marcato"	!	!	!
4G# 4C#/	2FF#\	2cc#/	(>4b\	.	2F#\	.	4C#^/	.	4G#^/	.	4b^/	.	8cc# 8e\	.
.	.	.	.	.	.	.	.	.	.	.	.	.	8r	.
8.A#L 8.F#/	.	.	8.a#\L	.	.	.	8.F#\L	.	8.A#/L	.	8.a#/L	.	8.cc#\L	.
16BJk 16G#/	.	.	16g#\Jk)	.	.	.	16G#\Jk	.	16B/Jk	.	16g#/Jk	.	16cc#\Jk	.
8c# 8A#/	8FF#\	8cc#/	8f#\	.	8F#\	.	8A#\	.	8c#/	.	8f#/	.	4.ff#\	.
8r	8ryy	8r	8rAyy	.	8r	.	8r	.	8r	.	8r	.	.	.
8F#/	8F#\	8cc# 8a# 8f#/	4rAyy	.	8F#\	.	8F#\	.	8f# 8c#\	.	8a# 8f#/	.	.	.
!LO:TX:t=P:problem=brak pauzy 8	!	!	!	!	!	!	!	!	!	!	!	!	!	!
8ryy	8ryy	8r	.	.	8r	.	8r	.	8r	.	8r	.	8cc#\	.
*	*	*v	*v	*	*	*	*	*	*	*	*	*	*	*
=30	=30	=30	=30	=30	=30	=30	=30	=30	=30	=30	=30	=30	=30
8B/	8B\	8dd# 8b 8f#/	.	8B\	.	8B\	.	8B/	.	8b 8f#/	.	8dd#\	.
8r	8ryy	8r	.	8r	ff	8r	.	8r	.	8r	.	8r	ff
8F#/	8F#\	8ff# 8dd# 8b 8f#/	ff	8F#\	.	8F#\	ff	8.f#\L	ff	8.ff#\L	ff	8.ff#\L	.
8r	8ryy	8r	.	8r	.	8r	.	.	.	.	.	.	.
.	.	.	.	.	.	.	.	16f#\Jk	.	16ff#\Jk	.	16ff#\Jk	.
8D#/	8D#\	8ff# 8b 8f#/	.	8D#\	.	8D#\	.	8b 8f#\	.	8ff#\	.	8bb\	.
8r	8ryy	8r	.	8r	.	8r	.	8r	.	8r	.	8r	.
!LO:TX:a:t=(xx)	!	!	!	!	!	!	!	!	!	!	!	!	!
8BB/	8BB\	8ff# 8dd# 8b 8f#/	.	8BB/	.	8BB/	.	8b 8f#\	.	8bb 8ff#\	.	8ddd#\	.
!	!	!LO:TX:a:t=(x)	!	!	!	!	!	!	!	!	!	!	!
8ryy	8ryy	8r	.	8r	.	8r	.	8r	.	8r	.	8r	.
=31	=31	=31	=31	=31	=31	=31	=31	=31	=31	=31	=31	=31	=31
!LO:TX:a:t=(xx)	!	!	!	!	!	!	!	!	!	!	!	!	!
!LO:TX:t=P:problem=skreślony takt	!	!LO:TX:a:t=(x)	!	!	!	!	!	!	!	!	!	!	!
4e 4c#/	4F#\	4cc# 4b 4f#/	.	8F#\	.	8F#\	.	8b 8f#\	.	8bb 8cc#\	.	8ccc#\	.
.	.	.	.	8r	.	8r	.	8r	.	8r	.	8r	.
4e 4c#/	4F#\	4cc# 4b 4f#/	.	8F#\	.	8F#\	.	8b 8f#\	.	8bb 8cc#\	.	8ccc#\	.
.	.	.	.	8r	.	8r	.	8r	.	8r	.	8r	.
*	*	*	*	*	*2\right	*	*	*	*	*	*	*	*
!	!	!	!	!	!LO:DY:t=sff	!	!LO:DY:t=sff	!	!LO:DY:t=sff	!	!LO:DY:rj:t=sff	!	!LO:DY:t=sff
2e 2c#/	2F# 2FF#\	2ff# 2cc# 2a# 2f#/	.	2F#\	sf	2F#\	sf	2ee 2f#\	sf	2aa# 2cc#\	sf	2fff#^^\	sf
=32	=32	=32	=32	=32	=32	=32	=32	=32	=32	=32	=32	=32	=32
4d# 4B 4F#/	4BB\	4b 4f#/	.	4B\	.	4B\	.	4dd# 4f#\	.	4bb 4b\	.	4bb\	.
4r	4ryy	4r	.	4r	.	4r	.	4r	.	4r	.	4r	.
4B 4F#/	4BB\	4dd# 4b 4f# 4d#/	.	4BB/	.	4BB/	.	4B/	.	4b 4d#/	.	4dd# 4f# 4B/	.
4r	4ryy	4r	.	4r	.	4r	.	4r	.	4r	.	4r	.
*v	*v	*	*	*	*	*	*	*	*	*	*	*	*
=33	=33	=33	=33	=33	=33	=33	=33	=33	=33	=33	=33	=33
!	!	!	!	!	!	!	!LO:TX:t=P:problem=skreślona nuta	!	!	!	!	!
1B 1F# 1D# 1BB;	1ryy	.	1BB;	.	1D#;	.	1F#;	.	1B;	.	1B;	.
==	==	==	==	==	==	==	==	==	==	==	==	==
*-	*-	*-	*-	*-	*-	*-	*-	*-	*-	*-	*-	*-
!!!system-decoration: ([g1]{p6})
!!!RDF**kern: > = above
!!!RDF**kern: < = below
!!!RDF**kern: | = vertical stroke
!!!ENC: Andrzej Kubiczek
!!!END: 2021-04-17
!!!ENC: Marcin Jachim
!!!END: 2021-04-01
